src/lib/packages/icons/src/assets/filled/shield-check.svg

<svg width="24" height="24" viewBox="0 0 24 24" fill="none" xmlns="http://www.w3.org/2000/svg">
<path d="M12.0181 2C9.77807 3.111 8 4 3 5C3 6.137 3 9.70192 3 10.8889C3 17.5559 8.667 20.889 12 22C15.333 20.889 21 17.5559 21 10.8889C21 9.66392 21 6.194 21 5C16 4 14.2221 3.111 12.0181 2ZM15.542 10.53L11.542 14.53C11.396 14.676 11.204 14.75 11.012 14.75C10.82 14.75 10.6279 14.677 10.4819 14.53L8.48193 12.53C8.18893 12.237 8.18893 11.762 8.48193 11.469C8.77493 11.176 9.24997 11.176 9.54297 11.469L11.0129 12.939L14.4829 9.46899C14.7759 9.17599 15.2509 9.17599 15.5439 9.46899C15.8369 9.76199 15.835 10.237 15.542 10.53Z" fill="currentColor"/>
</svg>

<svg xmlns="http://www.w3.org/2000/svg" width="24" height="24" fill="none"><path fill="currentColor" d="M12.018 2C9.778 3.111 8 4 3 5v5.889c0 6.667 5.667 10 9 11.111 3.333-1.111 9-4.444 9-11.111V5c-5-1-6.778-1.889-8.982-3Zm3.524 8.53-4 4a.748.748 0 0 1-1.06 0l-2-2a.75.75 0 1 1 1.061-1.061l1.47 1.47 3.47-3.47a.75.75 0 1 1 1.059 1.061Z"/></svg>
